TestProjects/Core/Assets/StreamingAssets/红外模拟Thermal_016.cube
LUT_3D_SIZE 6
0.000000 0.021599 0.328191
0.000000 0.061964 0.366697
0.000000 0.243786 0.546377
0.000000 0.447048 0.737229
0.000000 0.599287 0.856633
0.000000 0.695231 0.908155
0.000000 0.236858 0.539547
0.000000 0.440894 0.731800
0.000000 0.595271 0.853821
0.000000 0.692687 0.907041
0.000000 0.755849 0.906772
0.000000 0.854094 0.716149
0.000000 0.591260 0.851145
0.000000 0.690096 0.906080
0.000000 0.752134 0.909166
0.000000 0.855101 0.723193
0.000000 0.830150 0.503664
0.253250 0.862515 0.345673
0.000000 0.748966 0.911348
0.000000 0.856301 0.730614
0.000000 0.830316 0.510516
0.227530 0.858864 0.346069
0.844917 0.957158 0.315223
1.027927 0.806520 0.297458
0.000000 0.830397 0.517436
0.202266 0.855190 0.347911
0.827794 0.955541 0.316613
1.028214 0.816227 0.297090
1.008224 0.426272 0.306625
0.974844 0.106122 0.695050
0.810269 0.953850 0.317927
1.028584 0.828886 0.296641
1.008303 0.438347 0.303714
0.984728 0.103792 0.665151
0.967591 0.154726 0.634150
0.980114 0.584738 0.820774
0.000000 0.021599 0.328191
0.000000 0.120499 0.424339
0.000000 0.320305 0.620475
0.000000 0.510874 0.791068
0.000000 0.639649 0.881617
0.000000 0.721426 0.915677
0.000000 0.313571 0.614015
0.000000 0.505462 0.786670
0.000000 0.636193 0.879554
0.000000 0.719037 0.915028
0.000000 0.816868 0.860930
0.000000 0.841387 0.633708
0.000000 0.632720 0.877693
0.000000 0.716903 0.914534
0.000000 0.809518 0.867017
0.000000 0.842546 0.640871
0.000796 0.829072 0.437989
0.504077 0.907722 0.353894
0.000000 0.802847 0.872411
0.000000 0.843491 0.648243
0.000528 0.829112 0.443335
0.485962 0.903870 0.357314
1.011692 0.953486 0.302124
1.023095 0.660177 0.302323
0.000256 0.829193 0.448769
0.467885 0.900007 0.361133
1.006639 0.962704 0.303403
1.023930 0.673327 0.302276
1.013790 0.312833 0.360915
0.716904 0.155227 0.996406
0.994235 0.962844 0.304611
1.024429 0.688768 0.301767
1.013104 0.321370 0.354803
0.747857 0.146574 0.979758
0.971160 0.282000 0.692010
0.985262 0.747902 0.891462
0.000000 0.027911 0.334006
0.000000 0.189216 0.492606
0.000000 0.395448 0.690895
0.000000 0.565218 0.832870
0.000000 0.673549 0.899154
0.000000 0.739268 0.917722
0.000000 0.388764 0.684810
0.000000 0.560780 0.829617
0.000000 0.670716 0.897716
0.000000 0.738889 0.917242
0.000000 0.863378 0.774993
0.000000 0.831830 0.553050
0.000000 0.667847 0.896494
0.000000 0.738455 0.917470
0.000000 0.864496 0.781959
0.000000 0.832200 0.560116
0.063752 0.835924 0.377967
0.718071 0.942837 0.326316
0.000000 0.865291 0.792482
0.000000 0.832626 0.567149
0.049108 0.833933 0.383789
0.699019 0.940220 0.328288
1.030133 0.881198 0.294688
1.010663 0.510707 0.296095
0.032674 0.832081 0.391227
0.679265 0.937376 0.330467
1.030319 0.887711 0.294461
1.010779 0.523351 0.295805
1.023258 0.212155 0.479325
0.883648 0.135162 0.831295
1.030613 0.895989 0.294198
1.011271 0.536281 0.295736
1.022435 0.232866 0.457295
0.842795 0.140594 0.885610
0.976075 0.452163 0.764178
0.990282 0.865509 0.942391
0.000000 0.076668 0.380987
0.000000 0.264315 0.566429
0.000000 0.465223 0.753033
0.000000 0.611070 0.864217
0.000000 0.702650 0.910706
0.000000 0.771792 0.895659
0.000000 0.459222 0.747793
0.000000 0.607224 0.861808
0.000000 0.700289 0.909795
0.000000 0.768372 0.898246
0.000000 0.850441 0.693284
0.000000 0.829732 0.478195
0.000000 0.697735 0.909005
0.000000 0.763486 0.901484
0.000000 0.851635 0.700993
0.000000 0.829841 0.484131
0.337514 0.874867 0.355321
0.911123 0.961870 0.310191
0.000000 0.852755 0.708433
0.000000 0.829939 0.490373
0.309921 0.870814 0.350465
0.895514 0.961248 0.311262
1.026809 0.768988 0.298816
1.009736 0.381511 0.322267
0.282263 0.866812 0.347439
0.878954 0.959800 0.312610
1.027184 0.781520 0.298349
1.009208 0.392438 0.317776
0.929341 0.104700 0.790239
0.968709 0.195864 0.653955
1.027603 0.795743 0.297826
1.008797 0.403402 0.313706
0.947383 0.102038 0.756073
0.968254 0.183782 0.648602
0.981482 0.632488 0.841522
0.994571 0.935290 0.972288
0.000000 0.138600 0.442316
0.000000 0.341147 0.640337
0.000000 0.526525 0.803512
0.000000 0.649453 0.887009
0.000000 0.727842 0.916826
0.000000 0.846116 0.834448
0.000000 0.521409 0.799416
0.000000 0.646139 0.885240
0.000000 0.725681 0.916284
0.000000 0.839172 0.840920
0.000000 0.838288 0.611075
0.001766 0.828744 0.418731
0.000000 0.723640 0.916095
0.000000 0.831380 0.848220
0.000000 0.839288 0.618542
0.002068 0.828865 0.423115
0.561656 0.918601 0.344873
1.024571 0.923275 0.297217
0.000000 0.840387 0.626051
0.001298 0.828792 0.428010
0.542595 0.915137 0.347664
1.022455 0.929568 0.297944
1.018362 0.616695 0.300076
1.018624 0.279939 0.396767
0.523672 0.911577 0.350718
1.018756 0.937530 0.299456
1.020053 0.630781 0.301066
1.017291 0.288002 0.386952
0.656046 0.174318 1.020443
0.972844 0.341191 0.716823
1.021827 0.646550 0.301921
1.015846 0.295573 0.377149
0.670001 0.169379 1.016195
0.972406 0.325266 0.710253
0.986707 0.786180 0.908006
0.997868 0.976038 0.989543
0.000000 0.209652 0.512748
0.000000 0.415352 0.708973
0.000000 0.578487 0.842406
0.000000 0.681991 0.902835
0.000000 0.743573 0.914924
0.000000 0.858737 0.745911
0.000000 0.574036 0.839170
0.000000 0.679151 0.901600
0.000000 0.742916 0.915229
0.000000 0.859925 0.752937
0.000000 0.830786 0.531513
0.150999 0.847918 0.354586
0.000000 0.740890 0.916625
0.000000 0.861030 0.760097
0.000000 0.830799 0.538620
0.127646 0.844510 0.359151
0.773680 0.949722 0.321174
1.029178 0.848577 0.295904
0.000000 0.831177 0.545685
0.105310 0.841373 0.364920
0.755250 0.947579 0.322861
1.029432 0.857368 0.295576
1.009021 0.473790 0.298162
1.012098 0.142719 0.574308
0.737219 0.945335 0.324561
1.029670 0.865256 0.295293
1.009223 0.486110 0.297123
1.017443 0.159299 0.547934
0.953301 0.136429 0.677853
0.978178 0.518728 0.792452
1.010544 0.498079 0.296522
1.021145 0.176477 0.519516
0.939870 0.132203 0.718124
0.977613 0.500931 0.784841
0.991374 0.888547 0.952293
0.999854 0.999854 0.999854
