TestProjects/Core/Assets/StreamingAssets/红外模拟Thermal_016.cube
LUT_3D_SIZE 16
0.000000 0.021599 0.328191
0.000000 0.021599 0.328191
0.000000 0.023328 0.329789
0.000000 0.061964 0.366697
0.000000 0.114846 0.418682
0.000000 0.176488 0.480038
0.000000 0.243786 0.546377
0.000000 0.313462 0.613938
0.000000 0.382233 0.678737
0.000000 0.447048 0.737229
0.000000 0.505314 0.786679
0.000000 0.556016 0.826135
0.000000 0.599287 0.856633
0.000000 0.636253 0.879704
0.000000 0.667958 0.896518
0.000000 0.695231 0.908155
0.000000 0.023933 0.330379
0.000000 0.060657 0.365398
0.000000 0.113039 0.416994
0.000000 0.174309 0.477773
0.000000 0.241341 0.543982
0.000000 0.310935 0.611521
0.000000 0.379989 0.676602
0.000000 0.445102 0.735528
0.000000 0.503745 0.785259
0.000000 0.554639 0.824985
0.000000 0.598158 0.855886
0.000000 0.635162 0.878940
0.000000 0.666901 0.895929
0.000000 0.694392 0.907668
0.000000 0.718340 0.915040
0.000000 0.738196 0.917462
0.000000 0.110972 0.414908
0.000000 0.172042 0.475620
0.000000 0.239046 0.541626
0.000000 0.308680 0.609349
0.000000 0.377620 0.674446
0.000000 0.442893 0.733408
0.000000 0.501672 0.783553
0.000000 0.552964 0.823821
0.000000 0.596673 0.854770
0.000000 0.633783 0.878204
0.000000 0.665785 0.895390
0.000000 0.693434 0.907400
0.000000 0.717689 0.914776
0.000000 0.737079 0.917456
0.000000 0.757065 0.905969
0.000000 0.811852 0.865019
0.000000 0.236858 0.539547
0.000000 0.306461 0.607260
0.000000 0.375477 0.672526
0.000000 0.440894 0.731800
0.000000 0.499853 0.782159
0.000000 0.551284 0.822536
0.000000 0.595271 0.853821
0.000000 0.632658 0.877508
0.000000 0.664727 0.894925
0.000000 0.692687 0.907041
0.000000 0.716947 0.914563
0.000000 0.736576 0.917519
0.000000 0.755849 0.906772
0.000000 0.809643 0.866961
0.000000 0.865508 0.793193
0.000000 0.854094 0.716149
0.000000 0.373188 0.670385
0.000000 0.438774 0.729980
0.000000 0.498165 0.780829
0.000000 0.549797 0.821375
0.000000 0.593960 0.852991
0.000000 0.631580 0.876884
0.000000 0.663788 0.894520
0.000000 0.691668 0.906683
0.000000 0.716080 0.914440
0.000000 0.736743 0.917631
0.000000 0.753965 0.907923
0.000000 0.806881 0.869028
0.000000 0.865737 0.796054
0.000000 0.854366 0.718325
0.000000 0.842789 0.643375
0.000000 0.832837 0.569690
0.000000 0.496579 0.779534
0.000000 0.548394 0.820378
0.000000 0.592784 0.852215
0.000000 0.630465 0.876190
0.000000 0.662859 0.894087
0.000000 0.690894 0.906538
0.000000 0.715275 0.914259
0.000000 0.736584 0.917655
0.000000 0.752546 0.908927
0.000000 0.804627 0.870938
0.000000 0.866244 0.793576
0.000000 0.854661 0.720608
0.000000 0.843159 0.645729
0.000000 0.833101 0.572106
0.000000 0.830131 0.501399
0.000622 0.829096 0.441432
0.000000 0.591260 0.851145
0.000000 0.629309 0.875518
0.000000 0.661888 0.893506
0.000000 0.690096 0.906080
0.000000 0.714627 0.914032
0.000000 0.735394 0.917565
0.000000 0.752134 0.909166
0.000000 0.802732 0.872436
0.000000 0.866347 0.801032
0.000000 0.855101 0.723193
0.000000 0.843508 0.648297
0.000000 0.833576 0.574455
0.000000 0.830150 0.503664
0.000531 0.829111 0.443260
0.031113 0.831801 0.391349
0.253250 0.862515 0.345673
0.000000 0.660772 0.892867
0.000000 0.689242 0.905803
0.000000 0.713818 0.913900
0.000000 0.734599 0.917481
0.000000 0.751245 0.909824
0.000000 0.800378 0.874265
0.000000 0.866462 0.807596
0.000000 0.855552 0.725684
0.000000 0.843922 0.650729
0.000000 0.833713 0.576793
0.000000 0.830202 0.505780
0.000442 0.829106 0.445032
0.032338 0.832123 0.392482
0.246222 0.861614 0.346103
0.479897 0.902529 0.358602
0.672470 0.936424 0.331147
0.000000 0.713082 0.913593
0.000000 0.734379 0.917442
0.000000 0.750350 0.910396
0.000000 0.798460 0.875731
0.000000 0.865991 0.810889
0.000000 0.856062 0.728205
0.000000 0.844302 0.653407
0.000000 0.834140 0.579293
0.000000 0.830260 0.508299
0.000342 0.829155 0.447015
0.027847 0.831316 0.394498
0.236072 0.860047 0.346076
0.473467 0.901287 0.360011
0.666303 0.935501 0.331838
0.850657 0.957525 0.314814
1.008820 0.960016 0.303046
0.000000 0.748966 0.911348
0.000000 0.796116 0.877658
0.000000 0.866754 0.811287
0.000000 0.856301 0.730614
0.000000 0.844622 0.655887
0.000000 0.834402 0.581793
0.000000 0.830316 0.510516
0.000258 0.829192 0.448685
0.020614 0.830491 0.397370
0.227530 0.858864 0.346069
0.467738 0.899954 0.360786
0.660093 0.934704 0.332439
0.844917 0.957158 0.315223
1.006937 0.962673 0.303496
1.030282 0.895066 0.294459
1.027927 0.806520 0.297458
0.000000 0.868124 0.811345
0.000000 0.856715 0.733103
0.000000 0.844939 0.658262
0.000000 0.834655 0.583929
0.000000 0.830361 0.512324
0.000194 0.829225 0.449988
0.008831 0.829122 0.401113
0.216908 0.857246 0.345889
0.460886 0.898494 0.361904
0.652854 0.933769 0.333009
0.838978 0.956798 0.315572
1.003367 0.962810 0.303940
1.030628 0.897679 0.294116
1.028025 0.810093 0.297299
1.024131 0.678766 0.302115
1.011445 0.540380 0.295783
0.000000 0.845277 0.660353
0.000000 0.834897 0.586221
0.000000 0.830343 0.514788
0.000078 0.829304 0.452250
0.014726 0.829992 0.401503
0.208970 0.856160 0.346840
0.455664 0.897275 0.363406
0.646917 0.932649 0.333905
0.833583 0.956124 0.316105
0.997755 0.962788 0.304182
1.030657 0.898659 0.294080
1.028112 0.812979 0.297201
1.024256 0.683186 0.301941
1.011688 0.544720 0.295839
1.008301 0.422608 0.307645
1.013274 0.318725 0.356470
0.000000 0.830397 0.517436
0.000000 0.829343 0.454372
0.016962 0.830285 0.402320
0.202266 0.855190 0.347911
0.450546 0.896026 0.364728
0.640902 0.931773 0.334675
0.827794 0.955541 0.316613
0.991913 0.962887 0.304481
1.030000 0.899792 0.294526
1.028214 0.816227 0.297090
1.024407 0.687784 0.301794
1.011874 0.548784 0.295945
1.008224 0.426272 0.306625
1.013188 0.321545 0.354724
1.022336 0.243771 0.454418
0.974844 0.106122 0.695050
0.011292 0.829436 0.404591
0.193919 0.854047 0.348631
0.444767 0.894585 0.366116
0.633840 0.930645 0.335595
0.821372 0.954947 0.317146
0.986742 0.962994 0.304930
1.029450 0.902303 0.294804
1.028335 0.820125 0.296940
1.024544 0.692445 0.301622
1.012129 0.553105 0.296064
1.008219 0.429878 0.305728
1.013025 0.324300 0.352978
1.022715 0.248573 0.455822
0.979497 0.110433 0.684861
0.755310 0.144537 0.975116
0.785451 0.150430 0.941625
0.438101 0.893069 0.367256
0.626995 0.929626 0.336305
0.815701 0.954261 0.317626
0.982437 0.962743 0.305310
1.029526 0.904604 0.294653
1.028438 0.823876 0.296797
1.024680 0.697259 0.301436
1.012442 0.557949 0.296238
1.008195 0.434084 0.304681
1.012824 0.327530 0.350990
1.023422 0.257267 0.457785
0.982689 0.107683 0.674071
0.767480 0.141300 0.967328
0.770700 0.153236 0.953312
0.967844 0.160535 0.634672
0.970973 0.273659 0.688278
0.810269 0.953850 0.317927
0.977796 0.962981 0.305668
1.030808 0.906135 0.293859
1.028584 0.828886 0.296641
1.024866 0.703382 0.301221
1.012802 0.562876 0.296451
1.008303 0.438347 0.303714
1.012688 0.330510 0.349099
1.023060 0.257779 0.448848
0.984728 0.103792 0.665151
0.778980 0.138263 0.959578
0.754904 0.156324 0.964839
0.967591 0.154726 0.634150
0.970843 0.267871 0.685937
0.975158 0.418527 0.749721
0.980114 0.584738 0.820774
0.000000 0.021599 0.328191
0.000000 0.021599 0.328191
0.000000 0.034335 0.340093
0.000000 0.079993 0.384297
0.000000 0.136220 0.440001
0.000000 0.200194 0.503439
0.000000 0.268889 0.570862
0.000000 0.338829 0.638091
0.000000 0.406624 0.701131
0.000000 0.469445 0.756642
0.000000 0.525055 0.802432
0.000000 0.572803 0.838343
0.000000 0.613543 0.865814
0.000000 0.648271 0.886539
0.000000 0.678245 0.901338
0.000000 0.704199 0.911115
0.000000 0.033075 0.338969
0.000000 0.078422 0.382794
0.000000 0.134540 0.438309
0.000000 0.198488 0.501755
0.000000 0.266972 0.569052
0.000000 0.336802 0.636251
0.000000 0.404578 0.699212
0.000000 0.467492 0.754916
0.000000 0.523188 0.800857
0.000000 0.571156 0.837163
0.000000 0.612182 0.865013
0.000000 0.647182 0.885878
0.000000 0.677332 0.900868
0.000000 0.703443 0.910894
0.000000 0.726340 0.916558
0.000000 0.741277 0.916338
0.000000 0.132419 0.436165
0.000000 0.196376 0.499612
0.000000 0.264654 0.566743
0.000000 0.334355 0.633839
0.000000 0.402221 0.697044
0.000000 0.465294 0.753082
0.000000 0.521357 0.799451
0.000000 0.569763 0.836114
0.000000 0.610925 0.864192
0.000000 0.646239 0.885292
0.000000 0.676386 0.900495
0.000000 0.702710 0.910565
0.000000 0.725769 0.916284
0.000000 0.741665 0.916153
0.000000 0.773231 0.894616
0.000000 0.838937 0.841192
0.000000 0.262035 0.564207
0.000000 0.332012 0.631640
0.000000 0.400132 0.695206
0.000000 0.463524 0.751497
0.000000 0.519825 0.798165
0.000000 0.568419 0.835149
0.000000 0.609808 0.863496
0.000000 0.645064 0.884610
0.000000 0.675383 0.899974
0.000000 0.701826 0.910278
0.000000 0.724844 0.916302
0.000000 0.741148 0.916330
0.000000 0.771769 0.895679
0.000000 0.836824 0.843210
0.000000 0.861395 0.762416
0.000000 0.849629 0.688437
0.000000 0.397944 0.693159
0.000000 0.461424 0.749740
0.000000 0.517998 0.796721
0.000000 0.566713 0.833932
0.000000 0.608279 0.862466
0.000000 0.643895 0.884006
0.000000 0.674464 0.899477
0.000000 0.701011 0.910202
0.000000 0.724288 0.916146
0.000000 0.740140 0.916965
0.000000 0.769563 0.897207
0.000000 0.834017 0.845827
0.000000 0.861811 0.764990
0.000000 0.850106 0.690905
0.000000 0.838927 0.616104
0.000000 0.831116 0.543482
0.000000 0.516076 0.795278
0.000000 0.565185 0.832859
0.000000 0.607122 0.861782
0.000000 0.642899 0.883505
0.000000 0.673733 0.899130
0.000000 0.700348 0.909956
0.000000 0.723609 0.916025
0.000000 0.739721 0.917458
0.000000 0.767484 0.898749
0.000000 0.831115 0.848556
0.000000 0.862229 0.767579
0.000000 0.850475 0.693443
0.000000 0.839207 0.618441
0.000000 0.831014 0.545590
0.000000 0.829747 0.477670
0.001556 0.828843 0.422840
0.000000 0.606095 0.861039
0.000000 0.641826 0.882809
0.000000 0.672688 0.898717
0.000000 0.699416 0.909529
0.000000 0.722876 0.915826
0.000000 0.740112 0.917122
0.000000 0.766418 0.899432
0.000000 0.828910 0.850540
0.000000 0.862538 0.769766
0.000000 0.850829 0.695749
0.000000 0.839630 0.620707
0.000000 0.831129 0.548066
0.000000 0.829780 0.480073
0.002088 0.828921 0.424820
0.097370 0.840352 0.366989
0.355696 0.877639 0.359315
0.000000 0.671609 0.898278
0.000000 0.698552 0.909200
0.000000 0.722060 0.915647
0.000000 0.739641 0.917047
0.000000 0.765379 0.900260
0.000000 0.826630 0.852471
0.000000 0.862861 0.772014
0.000000 0.851246 0.698214
0.000000 0.840043 0.623330
0.000000 0.831573 0.550353
0.000000 0.829804 0.482146
0.001674 0.828935 0.426433
0.092286 0.839714 0.369144
0.348291 0.876450 0.357853
0.548935 0.916286 0.346915
0.742440 0.945769 0.324064
0.000000 0.721470 0.915536
0.000000 0.738840 0.917288
0.000000 0.763960 0.901207
0.000000 0.824085 0.854732
0.000000 0.863289 0.775430
0.000000 0.851599 0.701027
0.000000 0.840354 0.625995
0.000000 0.831822 0.552865
0.000000 0.829845 0.484290
0.001300 0.828791 0.428021
0.084683 0.838664 0.371016
0.338964 0.875152 0.355783
0.542738 0.915116 0.347847
0.736839 0.945206 0.324671
0.912340 0.961577 0.310161
1.022258 0.929953 0.297928
0.000000 0.761706 0.902606
0.000000 0.821404 0.856999
0.000000 0.863638 0.778513
0.000000 0.852055 0.703101
0.000000 0.840638 0.628286
0.000000 0.831558 0.555013
0.000000 0.829827 0.486206
0.001220 0.828852 0.429552
0.078412 0.837797 0.372950
0.329760 0.873813 0.353790
0.535233 0.913851 0.348773
0.731126 0.944640 0.325100
0.906952 0.961743 0.310474
1.021469 0.931847 0.298392
1.029767 0.868477 0.295190
1.026574 0.761331 0.299095
0.000000 0.864030 0.779295
0.000000 0.852349 0.705567
0.000000 0.840948 0.630731
0.000000 0.831558 0.557721
0.000000 0.829866 0.488305
0.001145 0.828891 0.431018
0.067560 0.836106 0.375309
0.317740 0.871938 0.351286
0.529191 0.912633 0.349499
0.724312 0.943849 0.325629
0.901405 0.961920 0.310799
1.020742 0.933331 0.298974
1.029868 0.872150 0.295036
1.026724 0.765860 0.298932
1.019554 0.626604 0.300790
1.010525 0.492454 0.296793
0.000000 0.841313 0.633305
0.000000 0.832172 0.560014
0.000000 0.829943 0.490517
0.001053 0.828923 0.432865
0.064172 0.835935 0.377662
0.309657 0.870796 0.350263
0.523257 0.911423 0.350738
0.717741 0.942748 0.326392
0.895773 0.960924 0.311325
1.018980 0.936921 0.299493
1.029921 0.874110 0.294952
1.026824 0.769436 0.298799
1.020092 0.631110 0.301098
1.009874 0.497950 0.296510
1.009778 0.381284 0.322369
1.017301 0.287847 0.387395
0.000000 0.829992 0.492574
0.000968 0.828965 0.434564
0.059404 0.835413 0.380133
0.301409 0.869625 0.349597
0.517108 0.910211 0.351926
0.711526 0.941882 0.327094
0.889926 0.960584 0.311749
1.017725 0.940037 0.299869
1.029973 0.875714 0.294905
1.026934 0.773149 0.298656
1.020598 0.635384 0.301361
1.009799 0.502261 0.296331
1.009619 0.385119 0.320789
1.016766 0.290798 0.383327
1.021755 0.182673 0.514182
0.917359 0.106801 0.810470
0.052769 0.834554 0.382374
0.292598 0.868343 0.348546
0.511249 0.909038 0.353002
0.705555 0.941016 0.327747
0.884558 0.960443 0.312168
1.016841 0.942031 0.300263
1.030052 0.878250 0.294801
1.027039 0.776861 0.298504
1.021103 0.639795 0.301617
1.010114 0.506091 0.296193
1.009420 0.388440 0.319395
1.016265 0.293268 0.379746
1.022278 0.187892 0.507569
0.923023 0.106132 0.801245
0.663652 0.171520 1.018276
0.924546 0.132155 0.756115
0.504604 0.907793 0.353799
0.699027 0.940208 0.328278
0.878835 0.960151 0.312524
1.015536 0.945015 0.300803
1.030153 0.881561 0.294746
1.027205 0.782253 0.298329
1.021688 0.645231 0.301875
1.010515 0.509805 0.296113
1.009219 0.391965 0.317962
1.015913 0.295469 0.377300
1.022781 0.193188 0.499119
0.929772 0.105386 0.789897
0.668889 0.169743 1.016569
0.916866 0.132423 0.772454
0.968735 0.195860 0.654066
0.972462 0.326540 0.710664
0.872696 0.959851 0.312980
1.014513 0.947298 0.301340
1.030281 0.885027 0.294564
1.027350 0.786882 0.298154
1.022234 0.650489 0.302085
1.010723 0.514669 0.295983
1.009075 0.396004 0.316410
1.015449 0.298261 0.374305
1.023184 0.201107 0.489004
0.936010 0.103722 0.778291
0.675673 0.167576 1.014198
0.906486 0.133057 0.792831
0.968502 0.191015 0.651998
0.972324 0.320711 0.708286
0.977003 0.479608 0.775744
0.981669 0.641987 0.845607
0.000000 0.021599 0.328191
0.000000 0.021599 0.328191
0.000000 0.049557 0.354661
0.000000 0.099536 0.403558
0.000000 0.159167 0.462736
0.000000 0.225296 0.528201
0.000000 0.294687 0.595897
0.000000 0.363964 0.661810
0.000000 0.430160 0.722314
0.000000 0.490646 0.774495
0.000000 0.543292 0.816543
0.000000 0.588490 0.849259
0.000000 0.626908 0.874124
0.000000 0.659835 0.892445
0.000000 0.688275 0.905487
0.000000 0.713067 0.913794
0.000000 0.048404 0.353545
0.000000 0.097995 0.402069
0.000000 0.157219 0.460796
0.000000 0.223039 0.526029
0.000000 0.292339 0.593607
0.000000 0.361649 0.659651
0.000000 0.428141 0.720429
0.000000 0.488653 0.772919
0.000000 0.541650 0.815262
0.000000 0.587009 0.848314
0.000000 0.625734 0.873377
0.000000 0.658834 0.891882
0.000000 0.687344 0.905070
0.000000 0.712311 0.913430
0.000000 0.733595 0.917411
0.000000 0.748741 0.911452
0.000000 0.154985 0.458648
0.000000 0.220774 0.523764
0.000000 0.290104 0.591452
0.000000 0.359736 0.657744
0.000000 0.426203 0.718694
0.000000 0.486921 0.771452
0.000000 0.540075 0.813914
0.000000 0.585696 0.847309
0.000000 0.624515 0.872639
0.000000 0.657756 0.891362
0.000000 0.686422 0.904626
0.000000 0.711398 0.913261
0.000000 0.733003 0.917246
0.000000 0.748550 0.911668
0.000000 0.794211 0.879161
0.000000 0.862446 0.815602
0.000000 0.287933 0.589348
0.000000 0.357448 0.655579
0.000000 0.424063 0.716820
0.000000 0.484931 0.769731
0.000000 0.538322 0.812648
0.000000 0.584356 0.846428
0.000000 0.623419 0.871880
0.000000 0.656702 0.890867
0.000000 0.685550 0.904297
0.000000 0.710677 0.913058
0.000000 0.732797 0.917229
0.000000 0.747587 0.912200
0.000000 0.792187 0.880637
0.000000 0.861115 0.817324
0.000000 0.857130 0.735561
0.000000 0.845404 0.660929
0.000000 0.421504 0.714572
0.000000 0.483017 0.768207
0.000000 0.536802 0.811526
0.000000 0.582891 0.845461
0.000000 0.622145 0.871229
0.000000 0.655828 0.890415
0.000000 0.684717 0.903887
0.000000 0.709903 0.912801
0.000000 0.731989 0.917265
0.000000 0.746440 0.913073
0.000000 0.789618 0.882616
0.000000 0.861591 0.818014
0.000000 0.857459 0.737932
0.000000 0.845761 0.663215
0.000000 0.835297 0.588982
0.000000 0.830402 0.517524
0.000000 0.535215 0.810367
0.000000 0.581489 0.844540
0.000000 0.620897 0.870370
0.000000 0.654746 0.889939
0.000000 0.683842 0.903629
0.000000 0.709162 0.912701
0.000000 0.731483 0.917269
0.000000 0.745047 0.913971
0.000000 0.787351 0.884334
0.000000 0.860180 0.820168
0.000000 0.857979 0.740451
0.000000 0.846142 0.665714
0.000000 0.835542 0.591483
0.000000 0.830462 0.519196
0.000000 0.829375 0.455609
0.002375 0.828538 0.406622
0.000000 0.619616 0.869587
0.000000 0.653611 0.889255
0.000000 0.682839 0.903141
0.000000 0.708308 0.912336
0.000000 0.730642 0.917045
0.000000 0.744744 0.914047
0.000000 0.785789 0.885539
0.000000 0.855173 0.824546
0.000000 0.858413 0.743082
0.000000 0.846516 0.668196
0.000000 0.835925 0.593939
0.000000 0.830481 0.521885
0.000000 0.829357 0.458095
0.010522 0.829523 0.406552
0.183480 0.852413 0.349485
0.437633 0.892955 0.367421
0.000000 0.681985 0.902782
0.000000 0.707533 0.912088
0.000000 0.729958 0.916878
0.000000 0.744643 0.914132
0.000000 0.784136 0.886722
0.000000 0.853227 0.826644
0.000000 0.858686 0.745374
0.000000 0.846857 0.670805
0.000000 0.836283 0.596425
0.000000 0.830521 0.524333
0.000000 0.829405 0.460000
0.009920 0.829433 0.408014
0.176546 0.851560 0.350829
0.433306 0.891804 0.368883
0.620655 0.928616 0.337163
0.809505 0.953637 0.318121
0.000000 0.729279 0.916841
0.000000 0.744008 0.914581
0.000000 0.782342 0.888089
0.000000 0.851778 0.828409
0.000000 0.859030 0.747748
0.000000 0.847267 0.673246
0.000000 0.836603 0.598779
0.000000 0.830550 0.526630
0.000000 0.829429 0.461947
0.005503 0.828901 0.410490
0.168041 0.850376 0.351802
0.427925 0.890620 0.370216
0.614067 0.927619 0.338030
0.803725 0.952908 0.318663
0.971196 0.962995 0.306045
1.028665 0.908392 0.295141
0.000000 0.780155 0.889771
0.000000 0.849617 0.830954
0.000000 0.859372 0.750218
0.000000 0.847662 0.675529
0.000000 0.836890 0.600917
0.000000 0.830646 0.528565
0.000000 0.829466 0.463659
0.003486 0.828746 0.412304
0.159744 0.849035 0.353036
0.422275 0.889156 0.371395
0.607475 0.926529 0.338659
0.798153 0.952424 0.319084
0.966749 0.962837 0.306387
1.028791 0.910013 0.294937
1.028757 0.834410 0.296413
1.025109 0.711580 0.300905
0.000000 0.859851 0.753104
0.000000 0.848178 0.678222
0.000000 0.837127 0.603591
0.000000 0.830627 0.531138
0.000000 0.829513 0.465519
0.002018 0.828636 0.413685
0.149082 0.847302 0.353946
0.416207 0.887440 0.372497
0.600624 0.925345 0.339359
0.793086 0.952002 0.319408
0.962954 0.963210 0.306646
1.030248 0.910621 0.294164
1.028871 0.838531 0.296292
1.025247 0.716444 0.300720
1.013823 0.575164 0.297103
1.008613 0.449718 0.301505
0.000000 0.837535 0.605914
0.000000 0.830662 0.533626
0.000000 0.829569 0.467760
0.005415 0.829087 0.414661
0.143276 0.846701 0.355878
0.411630 0.886291 0.374128
0.594486 0.924228 0.340345
0.785917 0.951189 0.320084
0.955373 0.963026 0.307056
1.028494 0.912660 0.295148
1.028965 0.841622 0.296146
1.025380 0.720651 0.300574
1.014256 0.579824 0.297389
1.008587 0.453143 0.300894
1.011974 0.342869 0.341803
1.022101 0.262899 0.433596
0.000000 0.829607 0.469835
0.003736 0.828784 0.416752
0.136617 0.845783 0.357782
0.406106 0.884974 0.374888
0.588015 0.923033 0.341361
0.779875 0.950325 0.320670
0.949842 0.962818 0.307470
1.026933 0.915218 0.295990
1.029030 0.843857 0.296074
1.025504 0.724980 0.300414
1.014739 0.584768 0.297718
1.008658 0.457467 0.300203
1.011804 0.346816 0.339607
1.021729 0.266332 0.430347
1.003218 0.129239 0.612439
0.828443 0.125891 0.919242
0.128377 0.844626 0.359273
0.396733 0.883562 0.371548
0.581772 0.922080 0.342242
0.773910 0.949606 0.321230
0.945351 0.962600 0.307864
1.026638 0.917616 0.295978
1.029129 0.847176 0.295955
1.025629 0.729409 0.300255
1.015219 0.589356 0.298028
1.008578 0.461567 0.299588
1.011584 0.349976 0.337853
1.021223 0.268257 0.423851
1.005484 0.131806 0.603793
0.836131 0.124063 0.911893
0.686218 0.170408 1.005057
0.966051 0.146014 0.630155
0.574652 0.920845 0.343053
0.768512 0.949096 0.321665
0.940010 0.962805 0.308191
1.026621 0.919232 0.295957
1.029244 0.850809 0.295812
1.025787 0.734476 0.300085
1.015632 0.593279 0.298314
1.008660 0.465335 0.299105
1.011375 0.353025 0.336204
1.020807 0.269282 0.417589
1.007139 0.131665 0.595320
0.845745 0.121806 0.902319
0.677284 0.172251 1.009299
0.965664 0.142535 0.630766
0.969931 0.238708 0.673140
0.974020 0.382222 0.734318
0.932923 0.963507 0.308505
1.026616 0.920231 0.296192
1.029368 0.855191 0.295671
1.025931 0.739332 0.299909
1.016100 0.597488 0.298619
1.009285 0.468620 0.298731
1.011188 0.356102 0.334546
1.020450 0.270419 0.412650
1.009959 0.137099 0.583080
0.857336 0.119177 0.890173
0.668582 0.173917 1.013283
0.965209 0.138244 0.631534
0.969697 0.233544 0.671161
0.973823 0.376836 0.732175
0.978796 0.540726 0.802003
0.983624 0.698088 0.869812
0.000000 0.021599 0.328191
0.000000 0.024494 0.330888
0.000000 0.066554 0.371153
0.000000 0.120499 0.424339
0.000000 0.182825 0.486170
0.000000 0.250543 0.552979
0.000000 0.320305 0.620475
0.000000 0.388929 0.685013
0.000000 0.453246 0.742710
0.000000 0.510874 0.791068
0.000000 0.560683 0.829596
0.000000 0.603305 0.859292
0.000000 0.639649 0.881617
0.000000 0.670761 0.897924
0.000000 0.697814 0.909068
0.000000 0.721426 0.915677
0.000000 0.065038 0.369728
0.000000 0.118522 0.422366
0.000000 0.180597 0.484067
0.000000 0.248344 0.550818
0.000000 0.318063 0.618402
0.000000 0.386687 0.682861
0.000000 0.451214 0.740849
0.000000 0.509057 0.789621
0.000000 0.559231 0.828407
0.000000 0.602053 0.858480
0.000000 0.638507 0.880926
0.000000 0.669775 0.897340
0.000000 0.696884 0.908677
0.000000 0.720632 0.915413
0.000000 0.739263 0.917318
0.000000 0.761721 0.902684
0.000000 0.178613 0.482058
0.000000 0.246016 0.548508
0.000000 0.315768 0.616048
0.000000 0.384506 0.680830
0.000000 0.449147 0.738955
0.000000 0.507174 0.788132
0.000000 0.557496 0.827156
0.000000 0.600498 0.857456
0.000000 0.637187 0.880119
0.000000 0.668716 0.896854
0.000000 0.695978 0.908392
0.000000 0.719759 0.915193
0.000000 0.738326 0.917332
0.000000 0.761034 0.903221
0.000000 0.819142 0.858926
0.000000 0.864068 0.779608
0.000000 0.313571 0.614015
0.000000 0.382352 0.678890
0.000000 0.447199 0.737290
0.000000 0.505462 0.786670
0.000000 0.556060 0.826125
0.000000 0.599289 0.856542
0.000000 0.636193 0.879554
0.000000 0.667764 0.896399
0.000000 0.695152 0.907962
0.000000 0.719037 0.915028
0.000000 0.737469 0.917612
0.000000 0.759623 0.904097
0.000000 0.816868 0.860930
0.000000 0.864246 0.784150
0.000000 0.852780 0.708352
0.000000 0.841387 0.633708
0.000000 0.445096 0.735505
0.000000 0.503662 0.785250
0.000000 0.554447 0.824989
0.000000 0.597981 0.855860
0.000000 0.635151 0.878953
0.000000 0.666904 0.896000
0.000000 0.694390 0.907749
0.000000 0.718318 0.915030
0.000000 0.737526 0.917749
0.000000 0.757991 0.905336
0.000000 0.813989 0.863282
0.000000 0.864724 0.787146
0.000000 0.853161 0.710716
0.000000 0.841705 0.635895
0.000000 0.832249 0.562486
0.000000 0.829972 0.492798
0.000000 0.553016 0.823880
0.000000 0.596738 0.854867
0.000000 0.633959 0.878393
0.000000 0.665866 0.895591
0.000000 0.693498 0.907468
0.000000 0.717727 0.914903
0.000000 0.738267 0.917784
0.000000 0.756136 0.906514
0.000000 0.811653 0.865251
0.000000 0.865208 0.786711
0.000000 0.853526 0.712847
0.000000 0.842031 0.637985
0.000000 0.832362 0.564682
0.000000 0.830022 0.494698
0.000891 0.829003 0.436077
0.047371 0.833386 0.382546
0.000000 0.632720 0.877693
0.000000 0.664827 0.895065
0.000000 0.692637 0.907047
0.000000 0.716903 0.914534
0.000000 0.737257 0.917438
0.000000 0.755358 0.907048
0.000000 0.809518 0.867017
0.000000 0.865521 0.790233
0.000000 0.854014 0.715746
0.000000 0.842546 0.640871
0.000000 0.832783 0.567245
0.000000 0.830102 0.497116
0.000796 0.829072 0.437989
0.046715 0.833730 0.384621
0.282037 0.866685 0.347316
0.504077 0.907722 0.353894
0.000000 0.691648 0.906730
0.000000 0.716085 0.914359
0.000000 0.735995 0.917531
0.000000 0.754683 0.907440
0.000000 0.807292 0.868688
0.000000 0.865970 0.793992
0.000000 0.854370 0.718232
0.000000 0.842786 0.643317
